_site/images/homepage/legal-advisors.svg

<svg fill="none" height="110" viewBox="0 0 110 110" width="110" xmlns="http://www.w3.org/2000/svg" xmlns:xlink="http://www.w3.org/1999/xlink"><filter id="a" color-interpolation-filters="sRGB" filterUnits="userSpaceOnUse" height="110" width="110" x="0" y="0"><feFlood flood-opacity="0" result="BackgroundImageFix"/><feColorMatrix in="SourceAlpha" type="matrix" values="0 0 0 0 0 0 0 0 0 0 0 0 0 0 0 0 0 0 127 0"/><feOffset dy="6"/><feGaussianBlur stdDeviation="7.5"/><feColorMatrix type="matrix" values="0 0 0 0 0.164706 0 0 0 0 0.439216 0 0 0 0 0.690196 0 0 0 0.15 0"/><feBlend in2="BackgroundImageFix" mode="normal" result="effect1_dropShadow"/><feBlend in="SourceGraphic" in2="effect1_dropShadow" mode="normal" result="shape"/></filter><g filter="url(#a)"><rect fill="#f9fcff" height="80" rx="25" width="80" x="15" y="9"/></g><g fill="#00a0b6"><path d="m49.5424 40.6206h9.5892c.5261 0 .9525-.4264.9525-.9526 0-.5261-.4264-.9525-.9525-.9525h-9.5892c-.5261 0-.9526.4264-.9526.9525 0 .5262.4265.9526.9526.9526z"/><path d="m66.6358 35.7421-2.7421 2.7421v-4.5316c0-.5262-.4264-.9526-.9525-.9526h-17.2732c-.2521 0-.4962.1015-.6738.2791l-5.7151 5.7151c-.1806.1806-.2791.4262-.2791.6738v21.0834c0 2.6263 2.1366 4.7629 4.7628 4.7629h19.1784c2.6262 0 4.7628-2.1366 4.7628-4.7629v-1.9051c0-.5261-.4264-.9526-.9526-.9526h-2.8577v-11.3266l6.7836-6.7835c1.1141-1.1143 1.1141-2.9272 0-4.0415-1.1168-1.1168-2.9244-1.1168-4.0415 0zm-21.9204.5103v2.463h-2.463zm1.9051 22.5939v1.9051c0 1.5757-1.282 2.8577-2.8577 2.8577s-2.8577-1.282-2.8577-2.8577c0-.3495 0-19.3626 0-20.1309h4.7629c.5261 0 .9525-.4264.9525-.9525v-4.7629h15.3681v5.4842l-2.1363 2.1364h-16.0895c-.5261 0-.9525.4264-.9525.9525 0 .5262.4264.9526.9525.9526h14.1843l-1.9051 1.9051h-12.2792c-.5261 0-.9525.4265-.9525.9526s.4264.9526.9525.9526h10.3741l-1.0203 1.0203c-.1044.1046-.1833.2319-.23.3723l-.1709.5125h-8.9529c-.5261 0-.9525.4264-.9525.9526 0 .5261.4264.9525.9525.9525h8.3179l-.4701 1.4105-.4949.4947h-7.3529c-.5261 0-.9525.4264-.9525.9525 0 .5262.4264.9526.9525.9526h7.6154c.3063 0 .5556-.0288.8057-.2791l.7737-.7737 3.8281-1.276c.1402-.0467.2677-.1255.3724-.23l4.8305-4.8305v9.4214h-14.4155c-.5261 0-.9526.4265-.9526.9526zm10.3262-8.0266-.9769.9769-2.0207.6737.6737-2.0207.9767-.9769zm8.8522 8.9792v.9525c0 1.5757-1.282 2.8577-2.8577 2.8577h-15.3703c.599-.7965.9548-1.7865.9548-2.8577v-.9525zm1.5102-19.3416-9.0152 9.0154-1.3472-1.3472 9.0151-9.0152zm2.021-2.021-.674.674-1.347-1.347.6737-.674c.3716-.3713.9759-.3713 1.3473 0 .3713.3714.3713.9757 0 1.347z"/></g></svg>

<svg width="110" height="110" viewBox="0 0 110 110" fill="none" xmlns="http://www.w3.org/2000/svg">
<g filter="url(#filter0_d)">
<rect x="15" y="9" width="80" height="80" rx="25" fill="#F9FCFF"/>
</g>
<path d="M49.5424 40.6206H59.1316C59.6577 40.6206 60.0841 40.1942 60.0841 39.668C60.0841 39.1419 59.6577 38.7155 59.1316 38.7155H49.5424C49.0163 38.7155 48.5898 39.1419 48.5898 39.668C48.5898 40.1942 49.0163 40.6206 49.5424 40.6206Z" fill="#00A0B6"/>
<path d="M66.6358 35.7421L63.8937 38.4842V33.9526C63.8937 33.4264 63.4673 33 62.9412 33H45.668C45.4159 33 45.1718 33.1015 44.9942 33.2791L39.2791 38.9942C39.0985 39.1748 39 39.4204 39 39.668V60.7514C39 63.3777 41.1366 65.5143 43.7628 65.5143H62.9412C65.5674 65.5143 67.704 63.3777 67.704 60.7514V58.8463C67.704 58.3202 67.2776 57.8937 66.7514 57.8937H63.8937V46.5671L70.6773 39.7836C71.7914 38.6693 71.7914 36.8564 70.6773 35.7421C69.5605 34.6253 67.7529 34.6253 66.6358 35.7421ZM44.7154 36.2524V38.7154H42.2524L44.7154 36.2524ZM46.6205 58.8463V60.7514C46.6205 62.3271 45.3385 63.6091 43.7628 63.6091C42.1871 63.6091 40.9051 62.3271 40.9051 60.7514C40.9051 60.4019 40.9051 41.3888 40.9051 40.6205H45.668C46.1941 40.6205 46.6205 40.1941 46.6205 39.668V34.9051H61.9886V40.3893L59.8523 42.5257H43.7628C43.2367 42.5257 42.8103 42.9521 42.8103 43.4782C42.8103 44.0044 43.2367 44.4308 43.7628 44.4308H57.9471L56.042 46.3359H43.7628C43.2367 46.3359 42.8103 46.7624 42.8103 47.2885C42.8103 47.8146 43.2367 48.2411 43.7628 48.2411H54.1369L53.1166 49.2614C53.0122 49.366 52.9333 49.4933 52.8866 49.6337L52.7157 50.1462H43.7628C43.2367 50.1462 42.8103 50.5726 42.8103 51.0988C42.8103 51.6249 43.2367 52.0513 43.7628 52.0513H52.0807L51.6106 53.4618L51.1157 53.9565H43.7628C43.2367 53.9565 42.8103 54.3829 42.8103 54.909C42.8103 55.4352 43.2367 55.8616 43.7628 55.8616H51.3782C51.6845 55.8616 51.9338 55.8328 52.1839 55.5825L52.9576 54.8088L56.7857 53.5328C56.9259 53.4861 57.0534 53.4073 57.1581 53.3028L61.9886 48.4723V57.8937H47.5731C47.047 57.8937 46.6205 58.3202 46.6205 58.8463ZM56.9467 50.8197L55.9698 51.7966L53.9491 52.4703L54.6228 50.4496L55.5995 49.4727L56.9467 50.8197ZM65.7989 59.7989V60.7514C65.7989 62.3271 64.5169 63.6091 62.9412 63.6091H47.5709C48.1699 62.8126 48.5257 61.8226 48.5257 60.7514V59.7989H65.7989ZM67.3091 40.4573L58.2939 49.4727L56.9467 48.1255L65.9618 39.1103L67.3091 40.4573ZM69.3301 38.4363L68.6561 39.1103L67.3091 37.7633L67.9828 37.0893C68.3544 36.718 68.9587 36.718 69.3301 37.0893C69.7014 37.4607 69.7014 38.065 69.3301 38.4363Z" fill="#00A0B6"/>
<defs>
<filter id="filter0_d" x="0" y="0" width="110" height="110" filterUnits="userSpaceOnUse" color-interpolation-filters="sRGB">
<feFlood flood-opacity="0" result="BackgroundImageFix"/>
<feColorMatrix in="SourceAlpha" type="matrix" values="0 0 0 0 0 0 0 0 0 0 0 0 0 0 0 0 0 0 127 0"/>
<feOffset dy="6"/>
<feGaussianBlur stdDeviation="7.5"/>
<feColorMatrix type="matrix" values="0 0 0 0 0.164706 0 0 0 0 0.439216 0 0 0 0 0.690196 0 0 0 0.15 0"/>
<feBlend mode="normal" in2="BackgroundImageFix" result="effect1_dropShadow"/>
<feBlend mode="normal" in="SourceGraphic" in2="effect1_dropShadow" result="shape"/>
</filter>
</defs>
</svg>
